outputs/icons/enterprise/barcode_settings_round.svg

<svg xmlns="http://www.w3.org/2000/svg" width="1200" height="1200" fill="none"><path fill="#000" fill-rule="evenodd" d="M672.56 677.05a187.3 187.3 0 0 1 40.87 23.635l79.635-16.26 46.875 81.2-53.905 60.79c.99 7.825 1.465 15.7 1.465 23.585 0 7.895-.475 15.8-1.465 23.635l53.905 60.79-46.875 81.2-79.635-16.31a187.3 187.3 0 0 1-40.87 23.635L646.875 1100h-93.75l-25.685-77.05a187.7 187.7 0 0 1-40.867-23.635l-79.64 16.31-46.874-81.2 53.906-60.79A192 192 0 0 1 412.5 850c.003-7.885.493-15.76 1.465-23.585l-53.906-60.79 46.874-81.2 79.64 16.26a187.7 187.7 0 0 1 40.867-23.635L553.125 600h93.75zM600 756.25a93.79 93.79 0 0 0-66.31 27.44A93.79 93.79 0 0 0 506.25 850a93.79 93.79 0 0 0 27.44 66.31A93.79 93.79 0 0 0 600 943.75a93.79 93.79 0 0 0 66.31-27.44A93.79 93.79 0 0 0 693.75 850a93.79 93.79 0 0 0-27.44-66.31A93.79 93.79 0 0 0 600 756.25"/><path fill="#000" d="M225 850H100V100h125zM1100 850H975V100h125zM381.25 100v504.15l-51.856 89.6H287.5V100zM912.5 693.75h-41.895L850 658.01V100h62.5zM506.25 542.97l-29.883 89.745-2.734 1.56-29.883-6.15V100h62.5zM787.5 621.775l-61.135 12.5-2.73-1.56-29.885-89.745V100h93.75zM631.25 537.5h-62.5V100h62.5z"/></svg>

<svg width="1200" height="1200" viewBox="0 0 1200 1200" fill="none" xmlns="http://www.w3.org/2000/svg"><path fill-rule="evenodd" d="M100 100H225V850H100V100ZM975 100H1100V850H975V100ZM850 658.01L870.625 693.75H912.5V100H850V658.01ZM786.015 826.405C787.005 834.23 787.5 842.11 787.5 850C787.5 857.895 787.005 865.78 786.015 873.615L839.94 934.415L793.065 1015.605L713.42 999.3C700.85 1008.875 687.12 1016.82 672.56 1022.95L646.875 1100H553.125L527.44 1022.95C512.875 1016.815 499.139 1008.87 486.562 999.3L406.933 1015.605L360.059 934.415L413.965 873.615C412.992 865.78 412.502 857.895 412.5 850C412.503 842.115 412.993 834.235 413.965 826.405L360.059 765.605L406.933 684.415L486.562 700.705C499.139 691.135 512.875 683.195 527.44 677.07L553.125 600H646.875L672.56 677.07C687.12 683.19 700.85 691.135 713.42 700.705L793.065 684.415L839.94 765.605L786.015 826.405ZM533.71 916.29C551.29 933.875 575.135 943.75 600 943.75C624.865 943.75 648.71 933.875 666.29 916.29C683.875 898.71 693.75 874.865 693.75 850C693.75 825.135 683.875 801.29 666.29 783.71C648.71 766.13 624.865 756.25 600 756.25C575.135 756.25 551.29 766.13 533.71 783.71C516.125 801.29 506.25 825.135 506.25 850C506.25 874.865 516.125 898.71 533.71 916.29ZM726.365 634.26L787.5 621.76V100H693.75V542.99L723.65 632.695L726.365 634.26ZM568.75 100H631.25V537.5H568.75V100ZM476.347 632.695L506.25 542.99V100H443.75V628.145L473.632 634.26L476.347 632.695ZM287.5 100H381.25V604.16L329.375 693.75H287.5V100Z" fill="#1D1E23"/></svg>
